X: 6
T: Margaret's
R: waltz
M: 3/4
L: 1/8
K: Amaj
AF|:E3 FAB|{B}c4 Ac|BA F2 Ac|B4 AF|
E3 FAB|ce3 AB|c2c2B2|1 A4 AF:|2 A4 cd||
e2 f2 g2|a2 g2 a2|fe d2 f2|e4 cB|
A3 B cd|e2 c2 e2|fe d2 c2|B4 cd|
e2 f2 g2|a2 g2 f2|e2 d2 c2|B4 AF|
E3 FAB|ce3 AB|c2 c2 B2|A6||


Tune 1678	Setting 15101

